X:1
T:D Major Oliver Holden, 1800
T:Anne Steele, 1760 86. 86. (C. M.)
T:Oracle No copyright. Transcribed from Plain Psalmody, 1800.
%%score [ 1 2 3 ]
L:1/8
M:3/4
K:D
V:1 treble nm="Treble" snm="Tr."
V:2 treble-8 nm="Tenor" snm="T."
V:3 bass nm="Bass" snm="B."
V:1
 D2 F2 E2 | D4 B2 | (A2 dA) G2 | (G2 F2) B2 | (B2 A2) c2 | (d2 e2) dc | d4 z2 | D2 F2 E2 | D4 B2 | %9
 (A2 dA) G2 | (G2 F2) F2 | (B2 dB) AG | F4 E2 | D6 |] %14
V:2
 d2 d2 c2 | d4 d2 | (d2 fd) c2 | (e2 d2) d2 | d4 e2 | (d2 c2) AG | F4 z2 | F2 A2 c2 | (d2 A2) d2 | %9
w: 1.~Fa- ther of|mer- cies!|In * * Thy|word * What|end- less|glo- * ry *|shines!|For- ev- er|be * Thy|
 (d2 fd) c2 | (e2 d2) d2 | (d2 Bd) de | d4 c2 | d6 |] %14
w: name * * a-|dored, * For|these * * ce- *|les- tial|lines.|
V:3
 D,2 D,2 A,,2 | D,4 D,2 | D,4 A,,2 | D,4 G,2 | (G,2 F,2) A,2 | (B,2 A,2) A,,2 | D,4 z2 | %7
 D,2 D,2 A,,2 | D,4 D,2 | D,4 A,,2 | D,4 D,2 | G,4 F,G, | A,4 A,,2 | D,6 |] %14

